X: 33
T: Sheehan's Reel
M: C|
L: 1/8
R: Reel
B: O'Neill's 1213
Z: John Chambers <jc@trillian.mit.edu>
K:G
|: "G"G2BG DGBG | "D7"ABcA "G"BGGB | "Am"A^GAB cBcA | EAAG "D7"FDEF |
|  "G"G2BG DGBd | "C"cBAB "D7"cdef | "G"gedB "C"c2Bc | "D7"dBcA "G"BGG2 :|
|: "G"g2bg dgbg | gbag fdde | "F"=f2af cfaf | "G"gbag "D7"^fdef |
|  "G"g2bg dgbg | gbag "D7"fdef | "G"gedB "C"c2Bc | "D7"dBcA "G"BGG2 :|
%%sep 2 1 500
